images-ng/colibre/windowed-viewer.svg

<?xml version="1.0" encoding="UTF-8" standalone="no"?>
<svg
   viewBox="0 0 24 24"
   version="1.1"
   id="svg16"
   sodipodi:docname="lc_windowed-viewer.svg"
   inkscape:version="1.2.1 (9c6d41e410, 2022-07-14)"
   xmlns:inkscape="http://www.inkscape.org/namespaces/inkscape"
   xmlns:sodipodi="http://sodipodi.sourceforge.net/DTD/sodipodi-0.dtd"
   xmlns="http://www.w3.org/2000/svg"
   xmlns:svg="http://www.w3.org/2000/svg">
  <defs
     id="defs20" />
  <sodipodi:namedview
     id="namedview18"
     pagecolor="#ffffff"
     bordercolor="#000000"
     borderopacity="0.25"
     inkscape:showpageshadow="2"
     inkscape:pageopacity="0.0"
     inkscape:pagecheckerboard="0"
     inkscape:deskcolor="#d1d1d1"
     showgrid="true"
     inkscape:zoom="16.469695"
     inkscape:cx="19.581419"
     inkscape:cy="13.357867"
     inkscape:window-width="1920"
     inkscape:window-height="1031"
     inkscape:window-x="0"
     inkscape:window-y="0"
     inkscape:window-maximized="1"
     inkscape:current-layer="svg16">
    <inkscape:grid
       type="xygrid"
       id="grid249"
       spacingx="0.5"
       spacingy="0.5"
       empspacing="2" />
  </sodipodi:namedview>
  <g
     id="g1166">
    <path
       style="color:#000000;fill:#fafafa;stroke-width:0.999999;stroke-linecap:round;stroke-linejoin:round;-inkscape-stroke:none"
       d="M 21.5,4 V 18.5 H 5.4999999 V 4 Z"
       id="path1062" />
    <path
       style="color:#000000;fill:#3a3a38;stroke-linecap:round;stroke-linejoin:round;-inkscape-stroke:none"
       d="m 5,2 v 16.5 c 2.65e-5,0.276131 0.2238686,0.499973 0.5,0.5 h 16 c 0.276131,-2.7e-5 0.499973,-0.223869 0.5,-0.5 V 2 Z M 6,4 H 21 V 18 H 6 Z"
       id="path1064"
       sodipodi:nodetypes="cccccccccccc" />
  </g>
  <g
     id="g1172"
     transform="translate(-3,3)">
    <path
       style="color:#000000;fill:#fafafa;stroke-width:0.999999;stroke-linecap:round;stroke-linejoin:round;-inkscape-stroke:none"
       d="M 21.5,4 V 18.5 H 5.4999999 V 4 Z"
       id="path1168" />
    <path
       style="color:#000000;fill:#3a3a38;stroke-linecap:round;stroke-linejoin:round;-inkscape-stroke:none"
       d="m 5,2 v 16.5 c 2.65e-5,0.276131 0.2238686,0.499973 0.5,0.5 h 16 c 0.276131,-2.7e-5 0.499973,-0.223869 0.5,-0.5 V 2 Z M 6,4 H 21 V 18 H 6 Z"
       id="path1170"
       sodipodi:nodetypes="cccccccccccc" />
  </g>
  <rect
     style="opacity:1;fill:#1e8bcd;stroke:none;stroke-width:1;stroke-linecap:round;stroke-linejoin:round;stroke-dasharray:none"
     id="rect1226"
     width="17"
     height="2"
     x="2"
     y="5" />
</svg>

<svg version="1.1" viewBox="0 0 24 24" xmlns="http://www.w3.org/2000/svg"><g stroke-linecap="round" stroke-linejoin="round"><path d="m21.5 4v14.5h-16v-14.5z" color="#000000" fill="#fafafa" style="-inkscape-stroke:none"/><path d="m5 2v16.5c2.65e-5 0.27613 0.22387 0.49997 0.5 0.5h16c0.27613-2.7e-5 0.49997-0.22387 0.5-0.5v-16.5zm1 2h15v14h-15z" color="#000000" fill="#3a3a38" style="-inkscape-stroke:none"/></g><g transform="translate(-3,3)" stroke-linecap="round" stroke-linejoin="round"><path d="m21.5 4v14.5h-16v-14.5z" color="#000000" fill="#fafafa" style="-inkscape-stroke:none"/><path d="m5 2v16.5c2.65e-5 0.27613 0.22387 0.49997 0.5 0.5h16c0.27613-2.7e-5 0.49997-0.22387 0.5-0.5v-16.5zm1 2h15v14h-15z" color="#000000" fill="#3a3a38" style="-inkscape-stroke:none"/></g><rect x="2" y="5" width="17" height="2" fill="#1e8bcd"/></svg>
